X: 3222
T: Beggar's Belief
R: waltz
M: 3/4
K: Dminor
|:D2E2F2|d4A2|B2 GA BG|AB AG FE|D4E2|F4G2|A2d2^c2|A6|
D2E2F2|d4A2|B2 GA BG|AB AG FE|D2E2F2|GAB2G2|A2F2E2|D6:|
|:A,2D2E2|FEF2D2|B,2D2E2|FEF2D2|=B,2D2E2|FE F2D2|C2E2F2|G6|
A,2D2E2|FEF2D2|B,2D2E2|FEF2D2|C2E2F2|GAB2G2|A2F2E2|D6:|

